X:90
T:Limestone Rock
R:reel
H:There is also another reel by the same name. See also #4
D:Chieftains 1.
Z:id:hn-reel-90
M:C|
K:G
Bc|dBGB ABGB|dBGB A2Bc|dBGB ABGB|cABG A2Bc|
dBGB ABGB|dBGB A2df|~g3a bgaf|gedB ABcd||
|:e2de gede|gedB A2Bd|1 e2de gedB|cABG A2Bd:|2 eaaf gedB|cABG A2Bc||
P:Variations:
dBGB ABGB|dBGB A2Bc|dBGB ABGB|cABG A2Bc|
dBGB ABGB|dBGB A2df|~g3a bgaf|gedB A2Bd||
|:e2dg e2dg|e2dB A2Bd|1 e2dB e2dB|cABG A2Bd:|2 egfa gedB|cABG A2Bc||
<end>
<start>
